images/author.svg

<?xml version="1.0" encoding="utf-8"?><!-- Uploaded to: SVG Repo, www.svgrepo.com, Generator: SVG Repo Mixer Tools -->
<svg fill="#000000" width="800px" height="800px" viewBox="0 0 56 56" xmlns="http://www.w3.org/2000/svg"><path d="M 27.9999 51.9063 C 41.0546 51.9063 51.9063 41.0781 51.9063 28 C 51.9063 14.9453 41.0312 4.0937 27.9765 4.0937 C 14.8983 4.0937 4.0937 14.9453 4.0937 28 C 4.0937 41.0781 14.9218 51.9063 27.9999 51.9063 Z M 27.9999 35.9922 C 20.9452 35.9922 15.5077 38.5 13.1405 41.3125 C 9.9999 37.7968 8.1014 33.1328 8.1014 28 C 8.1014 16.9609 16.9140 8.0781 27.9765 8.0781 C 39.0155 8.0781 47.8983 16.9609 47.9219 28 C 47.9219 33.1563 46.0234 37.8203 42.8593 41.3359 C 40.4921 38.5234 35.0546 35.9922 27.9999 35.9922 Z M 27.9999 32.0078 C 32.4999 32.0547 36.0390 28.2109 36.0390 23.1719 C 36.0390 18.4375 32.4765 14.5 27.9999 14.5 C 23.4999 14.5 19.9140 18.4375 19.9609 23.1719 C 19.9843 28.2109 23.4765 31.9609 27.9999 32.0078 Z"/></svg>

<svg width="800" height="800" viewBox="0 0 56 56" xmlns="http://www.w3.org/2000/svg"><path d="M28 51.906c13.055 0 23.906-10.828 23.906-23.906 0-13.055-10.875-23.906-23.93-23.906C14.899 4.094 4.095 14.945 4.095 28c0 13.078 10.828 23.906 23.906 23.906Zm0-15.914c-7.055 0-12.492 2.508-14.86 5.32C10 37.797 8.101 33.133 8.101 28c0-11.04 8.813-19.922 19.876-19.922 11.039 0 19.921 8.883 19.945 19.922 0 5.156-1.899 9.82-5.063 13.336-2.367-2.813-7.804-5.344-14.86-5.344Zm0-3.984c4.5.047 8.039-3.797 8.039-8.836 0-4.735-3.563-8.672-8.04-8.672-4.5 0-8.085 3.938-8.038 8.672.023 5.039 3.516 8.789 8.039 8.836Z"/></svg>
